X:72
T:Reel 72
M:4/4
K:Dmaj
L:1/8
AG|FDDF ECA,B,|CB,CD EAdA|FDDF EDCE| (3DDD CE D2:|FG|Addc A2Bd|c<eAB c<AFE|Addc d2cd|edec d2cA|ABce dcdB|Adee f>e (3fed |edcB AGAG| (3FGA GE FDD|
